!!!COM: Corelli, Arcangelo
!!!OPR: Sonata da camera
!!!OPS: 4
!!!ONM: 9
!!!OMV: 4
!!!OTL: Tempo di Gavotta
!!!OMD: Allegro
**kern	**fb	**kern	**kern	**kern
*part4	*part4	*part3	*part2	*part1
*staff4	*	*staff3	*staff2	*staff1
*I"Organo	*	*I"Violone	*I"Violino II	*I"Violino I
*clefF4	*	*clefF4	*clefG2	*clefG2
*k[b-]	*	*k[b-]	*k[b-]	*k[b-]
*d:	*	*d:	*d:	*d:
*M2/2	*	*M2/2	*M2/2	*M2/2
*met(c|)	*	*met(c|)	*met(c|)	*met(c|)
=1	=1	=1	=1	=1
1r	.	1r	2r	4f
.	.	.	.	4b-
.	.	.	4f	4a
.	.	.	4b-	4dd
=2	=2	=2	=2	=2
4F	.	2r	4a	4cc
4B-	.	.	4dd	4b-
4A	6	4r	2cc	4f
4d	7	4d	.	[4ff
=3	=3	=3	=3	=3
4G	7	4G	2b-	4ff]
4c	7 -	4c	.	2ee-X
4F	-7	4F	4a	.
4B-	.	4B-	[4b-	4dd
=4	=4	=4	=4	=4
4E-X	6 5	4E-X	4b-]	2cc
4F	.	4F	4a	.
2BB-	.	2BB-	2b-	2b-
=5	=5	=5	=5	=5
2r	.	2r	8b-L	8ddL
.	.	.	8cc	8ff
.	.	.	8a	8cc
.	.	.	8ccJ	8ffJ
4B-	.	4B-	8b-L	8ddL
.	.	.	8cc	8ff
4r	.	4r	8a	8cc
.	.	.	8ccJ	8ffJ
=6	=6	=6	=6	=6
2r	.	2r	8b-L	8ddL
.	.	.	8cc	8ff
.	.	.	8a	8cc
.	.	.	8ccJ	8ffJ
4B-	.	4B-	2b-	2dd
4BB-	.	4BB-	.	.
=7	=7	=7	=7	=7
2r	.	2r	8ccL	8ee-XL
.	.	.	8dd	8gg
.	.	.	8bn	8dd
.	.	.	8ddJ	8ggJ
4c	-	4c	8ccL	8ee-L
.	.	.	8dd	8gg
4r	.	4r	8b	8dd
.	.	.	8ddJ	8ggJ
=8	=8	=8	=8	=8
2r	.	2r	8ccL	8ee-XL
.	.	.	8dd	8gg
.	.	.	8bn	8dd
.	.	.	8ddJ	8ggJ
4c	.	4c	2cc	2ee-
4C	.	4C	.	.
=9	=9	=9	=9	=9
2r	.	2r	8ddL	8ffL
.	.	.	8ee	8aa
.	.	.	8cc#X	8eeni
.	.	.	8eeJ	8aaJ
4d	.	4d	8ddL	8ffL
.	.	.	8ee	8aa
4r	.	4r	8cc#	8ee
.	.	.	8eeJ	8aaJ
=10	=10	=10	=10	=10
2r	.	2r	8ddL	8ffL
.	.	.	8ee	8aa
.	.	.	8cc#X	8ee
.	.	.	8eeJ	8aaJ
4d	.	[4d	4dd	4ff
4D	.	4D	[4ff	[4aa
=11	=11	=11	=11	=11
4G	9 7	4G	4ff]	4aa]
4GG	8 6	4GG	8eeL	8ggL
.	.	.	8ddJ	8ffJ
4AA	#	4AA	4cc#X	4ee
4D	.	4D	[4dd	4ff
=12	=12	=12	=12	=12
4A	4	4A	4dd]	2ee
4AA	#	4AA	4cc#X	.
4D	.	4D	4dd	4dd
4d	.	4d]	[4ff	[4aa
=13	=13	=13	=13	=13
4G	9 7	4G	4ff]	4aa]
4GG	8 6	4GG	8eeL	8ggL
.	.	.	8ddJ	8ffJ
4AA	#	4AA	4cc#X	4ee
4D	.	4D	[4dd	4ff
=14	=14	=14	=14	=14
4A	5 4	4A	4dd]	2ee
4AA	#	4AA	4cc#X	.
2D	.	2D	2dd	2dd
=15	=15	=15	=15	=15
2r	.	2r	8b-L	8ddL
.	.	.	8ccni	8ff
.	.	.	8a	8cc
.	.	.	8ccJ	8ffJ
4B-	.	4B-	8b-L	8ddL
.	.	.	8cc	8ff
4r	.	4r	8a	8cc
.	.	.	8ccJ	8ffJ
=16	=16	=16	=16	=16
2r	.	2r	8b-L	8ddL
.	.	.	8cc	8ff
.	.	.	8a	8cc
.	.	.	8ccJ	8ffJ
4B-	.	4B-	2b-	2dd
4BB-	.	4BB-	.	.
=17	=17	=17	=17	=17
2r	.	2r	8ffL	8ddL
.	.	.	8dd	8ff
.	.	.	8ee-X	8gg
.	.	.	8ffJ	8aaJ
4E-X	.	4E-X	8ggL	8bb-L
.	.	.	8ff	8aa
4r	.	4r	8ee-	8gg
.	.	.	8ddJ	8ffJ
=18	=18	=18	=18	=18
2r	.	2r	8ee-XL	8ggL
.	.	.	8dd	8ff
.	.	.	8cc	8ee-X
.	.	.	8b-J	8ddJ
2F	.	2F	2a	4cc
.	.	.	.	[4ff
=19	=19	=19	=19	=19
2D	6	2D	2f	4ff]
.	.	.	.	2bb-
2E-X	.	2E-X	2g	.
.	.	.	.	[4gg
=20	=20	=20	=20	=20
2C	-	2C	2ee-X	4gg]
.	.	.	.	2ccc
2F	.	2F	2a	.
.	.	.	.	[4aa
=21	=21	=21	=21	=21
2D	.	2D	2ff	4aa]
.	.	.	.	2ddd
2G	.	2G	2b-	.
.	.	.	.	[4bb-
=22	=22	=22	=22	=22
2E-X	.	2E-X	2gg	4bb-]
.	.	.	.	4gg
4F	.	4F	4cc	4a
4BB-	.	4BB-	4dd	[4b-
=23	=23	=23	=23	=23
4F	5 4	4F	2cc	4b-]
4FF	3	4FF	.	4a
2BB-	.	2BB-	2b-	4b-
.	.	.	.	[4ff
=24	=24	=24	=24	=24
2D	6	2D	2f	4ff]
.	.	.	.	2bb-
2E-X	.	2E-X	2g	.
.	.	.	.	[4gg
=25	=25	=25	=25	=25
2C	-	2C	2ee-X	4gg]
.	.	.	.	2ccc
2F	.	2F	2a	.
.	.	.	.	[4aa
=26	=26	=26	=26	=26
2D	.	2D	2ff	4aa]
.	.	.	.	2ddd
2G	.	2G	2b-	.
.	.	.	.	[4bb-
=27	=27	=27	=27	=27
2E-X	5 4	2E-X	2gg	4bb-]
.	.	.	.	4gg
4F	.	4F	4cc	4a
4BB-	.	4BB-	4dd	[4b-
=28	=28	=28	=28	=28
4F	5 4	4F	2cc	4b-]
4FF	3	4FF	.	4a
2BB-	.	2BB-	2b-	2b-
=29:|!|:	=29:|!|:	=29:|!|:	=29:|!|:	=29:|!|:
2F#X	6	2F#X	4r	8aL
.	.	.	.	8dd
.	.	.	4a	8cc
.	.	.	.	8ddJ
4G	.	4G	2d	8b-L
.	.	.	.	8dd
4F#	6	4F#	.	8a
.	.	.	.	8ddJ
=30	=30	=30	=30	=30
4G	.	4G	4r	8b-L
.	.	.	.	8dd
4F#X	6	4F#X	4a	8a
.	.	.	.	8ddJ
4G	.	4G	2d	2b-
4GG	.	4GG	.	.
=31	=31	=31	=31	=31
2Bn	6	2Bn	4r	8ddL
.	.	.	.	8gg
.	.	.	4dd	8ff
.	.	.	.	8ggJ
4c	-	4c	2g	8ee-XL
.	.	.	.	8gg
4B	6	4B	.	8dd
.	.	.	.	8ggJ
=32	=32	=32	=32	=32
4c	-	4c	4r	8ee-XL
.	.	.	.	8gg
4Bn	6	4Bn	4dd	8dd
.	.	.	.	8ggJ
4c	-	4c	2g	4ee-
4E-X	6	4E-X	.	4gg
=33	=33	=33	=33	=33
4F	-	4F	4r	4aa-X
4FF	.	4FF	4aa-X	2ff
4GG	7 n	4GG	4bn	.
4C	-	4C	[4cc	4ee-X
=34	=34	=34	=34	=34
4G	5 4	4G	4cc]	2dd
4GG	n	4GG	4bn	.
4C	-	4C	4cc	8ccL
.	.	.	.	8gg
4r	.	4r	4r	8dd
.	.	.	.	8ggJ
=35	=35	=35	=35	=35
4c	-	4c	2r	8ee-XL
.	.	.	.	8gg
4Bn	6	4Bn	.	8dd
.	.	.	.	8ggJ
4c	-	4c	8r	4ee-
.	.	.	8ggL	.
4B	6	4B	8dd	4g
.	.	.	8ggJ	.
=36	=36	=36	=36	=36
4c	-	4c	8ee-XL	2r
.	.	.	8gg	.
4Bn	6	4Bn	8dd	.
.	.	.	8ggJ	.
4c	-	4c	4ee-	8r
.	.	.	.	8aaL
4r	.	4r	4r	8eeni
.	.	.	.	8aaJ
=37	=37	=37	=37	=37
4d	.	4d	2r	8ffL
.	.	.	.	8aa
4c#X	6	4c#X	.	8ee
.	.	.	.	8aaJ
4d	.	4d	8r	4ff
.	.	.	8aaL	.
4c#	6	4c#	8eeni	4a
.	.	.	8aaJ	.
=38	=38	=38	=38	=38
4d	.	4d	8ffL	2r
.	.	.	8aa	.
4c#X	6	4c#X	8ee	.
.	.	.	8aaJ	.
4d	.	4d	8ffL	8r
.	.	.	8ff	8aaL
4D	.	4D	8ee	8gg
.	.	.	8ffJ	8aaJ
=39	=39	=39	=39	=39
4G	.	4G	8ggL	8bb-L
.	.	.	8ff	8aa
4GG	.	4GG	8ee	8gg
.	.	.	8ddJ	8ffJ
4AA	#	4AA	4cc#X	8eeL
.	.	.	.	8aa
4D	.	4D	[4dd	8gg
.	.	.	.	8ffJ
=40	=40	=40	=40	=40
4A	5 4	4A	4dd]	2ee
4AA	#	4AA	4cc#X	.
2D	.	2D	2dd	2dd
=41	=41	=41	=41	=41
1r	.	1r	2r	4f
.	.	.	.	4b-
.	.	.	4f	4a
.	.	.	4b-	4dd
=42	=42	=42	=42	=42
4F	.	4F	4a	4cc
4B-	.	4B-	4dd	4b-
4A	6	4A	4cc	4f
4d	.	4d	4f	4ff
=43	=43	=43	=43	=43
4G	.	4G	4dd	4bb-
4BB-	.	4BB-	2b-	4dd
4C	7	4C	.	4ee
4F	.	4F	4a	[4ff
=44	=44	=44	=44	=44
4c	5 4	4c	4g	4ff]
4C	3	4C	4cc	4ee
4F	.	4F	2a	2ff
4E-X	4 2	4E-X	.	.
=45	=45	=45	=45	=45
2D	6	2D	2r	8ffL
.	.	.	.	8ee-X
.	.	.	.	8dd
.	.	.	.	8ccJ
2E-X	.	2E-X	8r	2b-
.	.	.	8ggL	.
.	.	.	8ff	.
.	.	.	8ggJ	.
=46	=46	=46	=46	=46
2F	-7	2F	2a	8r
.	.	.	.	8aaL
.	.	.	.	8gg
.	.	.	.	8aaJ
2G	.	2G	8r	2b-
.	.	.	8bb-L	.
.	.	.	8aa	.
.	.	.	8bb-J	.
=47	=47	=47	=47	=47
2D	6	2D	2b-	8r
.	.	.	.	8bb-L
.	.	.	.	8aa
.	.	.	.	8bb-J
2E-X	.	2E-X	8r	2b-
.	.	.	8bb-L	.
.	.	.	8aa	.
.	.	.	8bb-J	.
=48	=48	=48	=48	=48
2F	6 4	2F	2b-	8r
.	.	.	.	8bb-L
.	.	.	.	8aa
.	.	.	.	8bb-J
2G	-r6	2G	8r	2b-
.	.	.	8bb-L	.
.	.	.	8aa	.
.	.	.	8bb-J	.
=49	=49	=49	=49	=49
2D	6	2D	8ffL	8r
.	.	.	8dd	8bb-L
.	.	.	8b-	8ff
.	.	.	8ddJ	8bb-J
2E-X	.	2E-X	8gL	8ggL
.	.	.	8aJ	8ff
.	.	.	4b-	8ee-X
.	.	.	.	8ddJ
=50	=50	=50	=50	=50
2F	4	2F	4.b-	2cc
.	3	.	.	.
.	.	.	8a	.
2BB-	.	2BB-	2b-	2b-
=51	=51	=51	=51	=51
2D	6	2D	2r	8ffL
.	.	.	.	8ee-X
.	.	.	.	8dd
.	.	.	.	8ccJ
2E-X	.	2E-X	8r	2b-
.	.	.	8ggL	.
.	.	.	8ff	.
.	.	.	8ggJ	.
=52	=52	=52	=52	=52
2F	7	2F	2a	8r
.	.	.	.	8aaL
.	.	.	.	8gg
.	.	.	.	8aaJ
2G	.	2G	8r	2b-
.	.	.	8bb-L	.
.	.	.	8aa	.
.	.	.	8bb-J	.
=53	=53	=53	=53	=53
2D	6	2D	2b-	8r
.	.	.	.	8bb-L
.	.	.	.	8aa
.	.	.	.	8bb-J
2E-X	.	2E-X	8r	2b-
.	.	.	8bb-L	.
.	.	.	8aa	.
.	.	.	8bb-J	.
=54	=54	=54	=54	=54
2F	6 4	2F	2b-	8r
.	.	.	.	8bb-L
.	.	.	.	8aa
.	.	.	.	8bb-J
2G	-r6	2G	8r	2b-
.	.	.	8bb-L	.
.	.	.	8aa	.
.	.	.	8bb-J	.
=55	=55	=55	=55	=55
2D	6	2D	8ffL	8r
.	.	.	8dd	8bb-L
.	.	.	8b-	8ff
.	.	.	8ddJ	8bb-J
2E-X	.	2E-X	8gL	8ggL
.	.	.	8aJ	8ff
.	.	.	[4b-	8ee-X
.	.	.	.	8ddJ
=56	=56	=56	=56	=56
2F	4	2F	4.b-]	2cc
.	3	.	8a	.
2BB-	.	2BB-	2b-	2b-
=:|!	=:|!	=:|!	=:|!	=:|!
*-	*-	*-	*-	*-
!!!system-decoration: [{s1,s2},s3,s4]
!!!YEM: CC BY-NC-SA 4.0; CCARH; DCML
!!!RDF**kern: i = editorial accidental